src/static/logos/caffe2.svg

<?xml version="1.0" encoding="UTF-8"?>
<svg width="255px" height="292px" viewBox="0 0 255 292" version="1.1" xmlns="http://www.w3.org/2000/svg" xmlns:xlink="http://www.w3.org/1999/xlink" preserveAspectRatio="xMidYMid">
	<g>
		<path d="M202.383739,162.431104 C202.383739,208.053889 165.399209,245.038419 119.776423,245.038419 C74.1546335,245.038419 37.1701043,208.053889 37.1701043,162.431104 L37.1701043,125.412707 L202.383739,125.412707 L202.383739,162.431104 Z" fill="#FFFFFF"></path>
		<path d="M214.983023,193.26476 L208.614898,193.26476 C211.978758,183.598518 213.831521,173.23002 213.831521,162.432199 L213.831521,159.565398 L214.983023,159.565398 C224.273731,159.565398 231.831209,167.122876 231.831209,176.413584 C231.831209,185.704293 224.273731,193.26476 214.983023,193.26476 M119.775925,233.590238 C80.5391938,233.590238 48.6168903,201.668931 48.6168903,162.432199 L48.6168903,136.861086 L172.662338,136.861086 L190.93496,136.861086 L190.93496,162.432199 C190.93496,180.694861 184.012999,197.368728 172.662338,209.980464 C159.627256,224.463888 140.749995,233.590238 119.775925,233.590238 M214.983023,136.389927 L213.831521,136.389927 L213.831521,125.412806 C213.831521,119.089507 208.707536,113.964526 202.38324,113.964526 L37.1696062,113.964526 C30.8463066,113.964526 25.7213261,119.089507 25.7213261,125.412806 L25.7213261,162.432199 C25.7213261,214.295608 67.9135128,256.487795 119.775925,256.487795 C151.551801,256.487795 179.676937,240.633725 196.712392,216.437242 L214.983023,216.437242 C237.052812,216.437242 255.004688,198.482378 255.004688,176.413584 C255.004688,154.344791 237.052812,136.389927 214.983023,136.389927" fill="#303846"></path>
		<path d="M125.71642,60.9408498 L111.304716,60.9408498 L111.304716,46.5291455 C111.304716,41.7806942 107.455751,37.9317292 102.7073,37.9317292 C97.9598444,37.9317292 94.1108794,41.7806942 94.1108794,46.5291455 L94.1108794,60.9408498 L79.6991751,60.9408498 C74.9507237,60.9408498 71.1017588,64.7898148 71.1017588,69.5382661 C71.1017588,74.2857214 74.9507237,78.1356825 79.6991751,78.1356825 L94.1108794,78.1356825 L94.1108794,92.5463907 C94.1108794,97.294842 97.9598444,101.143807 102.7073,101.143807 C107.455751,101.143807 111.304716,97.294842 111.304716,92.5463907 L111.304716,78.1356825 L125.71642,78.1356825 C130.464872,78.1356825 134.314833,74.2857214 134.314833,69.5382661 C134.314833,64.7898148 130.464872,60.9408498 125.71642,60.9408498" fill="#303846"></path>
		<path d="M175.138665,23.0089214 L160.728953,23.0089214 L160.728953,8.59721712 C160.728953,3.84976187 156.878991,-0.00019922179 152.13054,-0.00019922179 C147.383085,-0.00019922179 143.533124,3.84976187 143.533124,8.59721712 L143.533124,23.0089214 L129.122416,23.0089214 C124.373964,23.0089214 120.524999,26.8578864 120.524999,31.6063377 C120.524999,36.353793 124.373964,40.202758 129.122416,40.202758 L143.533124,40.202758 L143.533124,54.6144623 C143.533124,59.3629136 147.383085,63.2118786 152.13054,63.2118786 C156.878991,63.2118786 160.728953,59.3629136 160.728953,54.6144623 L160.728953,40.202758 L175.138665,40.202758 C179.887116,40.202758 183.737077,36.353793 183.737077,31.6063377 C183.737077,26.8578864 179.887116,23.0089214 175.138665,23.0089214" fill="#303846"></path>
		<path d="M228.827343,291.913612 L11.4484794,291.913612 C5.12517977,291.913612 0.00019922179,286.789628 0.00019922179,280.465332 C0.00019922179,274.141037 5.12517977,269.017052 11.4484794,269.017052 L228.827343,269.017052 C235.152635,269.017052 240.275623,274.141037 240.275623,280.465332 C240.275623,286.789628 235.152635,291.913612 228.827343,291.913612" fill="#303846"></path>
	</g>
</svg>

<svg width="255" height="292" xmlns="http://www.w3.org/2000/svg" preserveAspectRatio="xMidYMid"><path d="M202.384 162.431c0 45.623-36.985 82.607-82.608 82.607-45.621 0-82.606-36.984-82.606-82.607v-37.018h165.214v37.018z" fill="#FFF"/><path d="M214.983 193.265h-6.368a93.625 93.625 0 005.217-30.833v-2.867h1.151c9.29 0 16.848 7.558 16.848 16.849 0 9.29-7.557 16.85-16.848 16.85m-95.207 40.326c-39.237 0-71.16-31.921-71.16-71.158v-25.57h142.32v25.57c0 18.263-6.922 34.937-18.273 47.548-13.035 14.484-31.912 23.61-52.886 23.61m95.207-97.2h-1.151v-10.977c0-6.323-5.124-11.448-11.449-11.448H37.17c-6.324 0-11.449 5.125-11.449 11.448v37.02c0 51.863 42.193 94.055 94.055 94.055 31.776 0 59.9-15.854 76.936-40.05h18.271c22.07 0 40.022-17.956 40.022-40.024 0-22.07-17.952-40.024-40.022-40.024m-89.267-75.45h-14.411V46.53a8.597 8.597 0 10-17.194 0v14.41H79.699a8.598 8.598 0 000 17.195h14.412v14.411a8.597 8.597 0 1017.194 0v-14.41h14.411a8.599 8.599 0 000-17.195m49.423-37.932h-14.41V8.597a8.599 8.599 0 00-17.196 0V23.01h-14.41a8.597 8.597 0 100 17.194h14.41v14.411a8.598 8.598 0 0017.196 0V40.203h14.41a8.598 8.598 0 100-17.194m53.688 268.905H11.448C5.125 291.914 0 286.79 0 280.465c0-6.324 5.125-11.448 11.448-11.448h217.38c6.325 0 11.448 5.124 11.448 11.448 0 6.325-5.123 11.449-11.449 11.449" fill="#303846"/></svg>
